vendor/shopware/storefront/Resources/app/storefront/dist/assets/icon/default/settings.svg

<svg xmlns="http://www.w3.org/2000/svg" width="24" height="24" viewBox="0 0 24 24">
  <path fill="#758CA3" fill-rule="evenodd" d="M12,16 C9.790861,16 8,14.209139 8,12 C8,9.790861 9.790861,8 12,8 C14.209139,8 16,9.790861 16,12 C16,14.209139 14.209139,16 12,16 Z M12,14 C13.1045695,14 14,13.1045695 14,12 C14,10.8954305 13.1045695,10 12,10 C10.8954305,10 10,10.8954305 10,12 C10,13.1045695 10.8954305,14 12,14 Z M20.2987985,8.71517468 C20.4176633,8.89040605 20.6163373,8.99914118 20.83,9 L21,9 C22.6568542,9 24,10.3431458 24,12 C24,13.6568542 22.6568542,15 21,15 L20.9139883,14.999992 C20.6549169,15.0010253 20.421197,15.1558067 20.3191398,15.3939314 L20.3148626,15.4037653 C20.2075746,15.6468614 20.2590548,15.9307827 20.4371068,16.1128932 L20.4967133,16.1725 C21.0600445,16.7352048 21.3765733,17.4987723 21.3765733,18.295 C21.3765733,19.0912277 21.0600445,19.8547952 20.4975,20.4167133 C19.9347952,20.9800445 19.1712277,21.2965733 18.375,21.2965733 C17.5787723,21.2965733 16.8152048,20.9800445 16.2528932,20.4171068 L16.200735,20.3648626 C16.0107827,20.1790548 15.7268614,20.1275746 15.4739314,20.2391398 C15.2358067,20.341197 15.0810253,20.5749169 15.08,20.83 L15.08,21 C15.08,22.6568542 13.7368542,24 12.08,24 C10.4231458,24 9.08,22.6568542 9.08,21 L9.08027346,20.9333846 C9.07403212,20.6665579 8.90531385,20.4306648 8.59623466,20.3148626 C8.35313857,20.2075746 8.06921731,20.2590548 7.88710678,20.4371068 L7.8275,20.4967133 C7.26479523,21.0600445 6.50122774,21.3765733 5.705,21.3765733 C4.90877226,21.3765733 4.14520477,21.0600445 3.58328666,20.4975 C3.01995553,19.9347952 2.70342669,19.1712277 2.70342669,18.375 C2.70342669,17.5787723 3.01995553,16.8152048 3.58289322,16.2528932 L3.63513742,16.200735 C3.82094519,16.0107827 3.87242541,15.7268614 3.76086017,15.4739314 C3.65880297,15.2358067 3.42508314,15.0810253 3.17,15.08 L3,15.08 C1.34314575,15.08 3.33066907e-16,13.7368542 0,12.08 C-2.22044605e-16,10.4231458 1.34314575,9.08 3,9.08 L3.06661541,9.08027346 C3.33344206,9.07403212 3.56933519,8.90531385 3.68513742,8.59623466 C3.79242541,8.35313857 3.74094519,8.06921731 3.56289322,7.88710678 L3.50328666,7.8275 C2.93995553,7.26479523 2.62342669,6.50122774 2.62342669,5.705 C2.62342669,4.90877226 2.93995553,4.14520477 3.5025,3.58328666 C4.06520477,3.01995553 4.82877226,2.70342669 5.625,2.70342669 C6.42122774,2.70342669 7.18479523,3.01995553 7.74710678,3.58289322 L7.79926496,3.63513742 C7.98921731,3.82094519 8.27313857,3.87242541 8.51623466,3.76513742 C8.58030647,3.73685997 8.64699387,3.71546911 8.71517468,3.70120146 C8.89040605,3.58233675 8.99914118,3.3836627 9,3.17 L9,3 C9,1.34314575 10.3431458,3.33066907e-16 12,0 C13.6568542,0 15,1.34314575 15,3 L14.999992,3.08601169 C15.0010253,3.34508314 15.1558067,3.57880297 15.4037653,3.68513742 C15.6468614,3.79242541 15.9307827,3.74094519 16.1128932,3.56289322 L16.1725,3.50328666 C16.7352048,2.93995553 17.4987723,2.62342669 18.295,2.62342669 C19.0912277,2.62342669 19.8547952,2.93995553 20.4167133,3.5025 C20.9800445,4.06520477 21.2965733,4.82877226 21.2965733,5.625 C21.2965733,6.42122774 20.9800445,7.18479523 20.4171068,7.74710678 L20.3648626,7.79926496 C20.1790548,7.98921731 20.1275746,8.27313857 20.2348626,8.51623466 C20.26314,8.58030647 20.2845309,8.64699387 20.2987985,8.71517468 Z M20.91,13 L21,13 C21.5522847,13 22,12.5522847 22,12 C22,11.4477153 21.5522847,11 21,11 L20.8260117,10.999992 C19.7697973,10.9957795 18.8169395,10.3647479 18.4008602,9.39393144 C18.3646445,9.30943133 18.3403365,9.22053528 18.3284579,9.12978593 C17.997162,8.1847178 18.2270428,7.12462982 18.9428932,6.39289322 L19.0032867,6.3325 C19.1910637,6.14493174 19.2965733,5.89040925 19.2965733,5.625 C19.2965733,5.35959075 19.1910637,5.10506826 19.0025,4.91671334 C18.8149317,4.7289363 18.5604092,4.62342669 18.295,4.62342669 C18.0295908,4.62342669 17.7750683,4.7289363 17.5871068,4.91710678 L17.519265,4.98486258 C16.7448438,5.74238657 15.5873187,5.9522675 14.6060686,5.51913983 C13.6352521,5.10306046 13.0042205,4.1502027 13,3.09 L13,3 C13,2.44771525 12.5522847,2 12,2 C11.4477153,2 11,2.44771525 11,3 L10.999992,3.17398831 C10.9957795,4.2302027 10.3647479,5.18306046 9.39393144,5.59913983 C9.30943133,5.63535548 9.22053528,5.65966354 9.12978593,5.67154209 C8.1847178,6.00283804 7.12462982,5.77295717 6.39289322,5.05710678 L6.3325,4.99671334 C6.14493174,4.8089363 5.89040925,4.70342669 5.625,4.70342669 C5.35959075,4.70342669 5.10506826,4.8089363 4.91671334,4.9975 C4.7289363,5.18506826 4.62342669,5.43959075 4.62342669,5.705 C4.62342669,5.97040925 4.7289363,6.22493174 4.91710678,6.41289322 L4.98486258,6.48073504 C5.74238657,7.25515616 5.9522675,8.41268129 5.5385361,9.34518109 C5.16293446,10.3664297 4.2012163,11.0542811 3.09,11.08 L3,11.08 C2.44771525,11.08 2,11.5277153 2,12.08 C2,12.6322847 2.44771525,13.08 3,13.08 L3.17398831,13.080008 C4.2302027,13.0842205 5.18306046,13.7152521 5.59486258,14.6762347 C6.0322675,15.6673187 5.82238657,16.8248438 5.05710678,17.6071068 L4.99671334,17.6675 C4.8089363,17.8550683 4.70342669,18.1095908 4.70342669,18.375 C4.70342669,18.6404092 4.8089363,18.8949317 4.9975,19.0832867 C5.18506826,19.2710637 5.43959075,19.3765733 5.705,19.3765733 C5.97040925,19.3765733 6.22493174,19.2710637 6.41289322,19.0828932 L6.48073504,19.0151374 C7.25515616,18.2576134 8.41268129,18.0477325 9.34518109,18.4614639 C10.3664297,18.8370655 11.0542811,19.7987837 11.08,20.91 L11.08,21 C11.08,21.5522847 11.5277153,22 12.08,22 C12.6322847,22 13.08,21.5522847 13.08,21 L13.080008,20.8260117 C13.0842205,19.7697973 13.7152521,18.8169395 14.6762347,18.4051374 C15.6673187,17.9677325 16.8248438,18.1776134 17.6071068,18.9428932 L17.6675,19.0032867 C17.8550683,19.1910637 18.1095908,19.2965733 18.375,19.2965733 C18.6404092,19.2965733 18.8949317,19.1910637 19.0832867,19.0025 C19.2710637,18.8149317 19.3765733,18.5604092 19.3765733,18.295 C19.3765733,18.0295908 19.2710637,17.7750683 19.0828932,17.5871068 L19.0151374,17.519265 C18.2588636,16.7461219 18.0484268,15.5911384 18.482977,14.6011431 C18.9001657,13.6331176 19.8515919,13.0042134 20.91,13 Z"/>
</svg>

<svg xmlns="http://www.w3.org/2000/svg" width="24" height="24" viewBox="0 0 24 24"><path fill="#758CA3" fill-rule="evenodd" d="M12 16c-2.2091 0-4-1.7909-4-4 0-2.2091 1.7909-4 4-4 2.2091 0 4 1.7909 4 4 0 2.2091-1.7909 4-4 4zm0-2c1.1046 0 2-.8954 2-2s-.8954-2-2-2-2 .8954-2 2 .8954 2 2 2zm8.2988-5.2848A.6474.6474 0 0 0 20.83 9H21c1.6569 0 3 1.3431 3 3s-1.3431 3-3 3h-.086a.65.65 0 0 0-.5949.394l-.0042.0098c-.1073.243-.0558.527.1222.709l.0596.0597a3 3 0 0 1 .0008 4.2442 3 3 0 0 1-4.2446.0004l-.0522-.0522c-.19-.1858-.4738-.2373-.7268-.1258-.238.1021-.3929.3358-.3939.5909V21c0 1.6569-1.3431 3-3 3s-3-1.3431-3-3l.0003-.0666c-.0063-.2668-.175-.5027-.484-.6185-.2432-.1073-.527-.0558-.7092.1222l-.0596.0596a3 3 0 0 1-4.2442.0008 3 3 0 0 1-.0004-4.2446l.0522-.0522c.1858-.19.2373-.4738.1258-.7268-.1021-.238-.3358-.3929-.5909-.3939H3c-1.6569 0-3-1.3431-3-3s1.3431-3 3-3l.0666.0003c.2668-.0063.5027-.175.6185-.484.1073-.2432.0558-.527-.1222-.7092l-.0596-.0596a3 3 0 0 1-.0008-4.2442 3 3 0 0 1 4.2446-.0004l.0522.0522a.65.65 0 0 0 .717.13 1 1 0 0 1 .1989-.0639A.6474.6474 0 0 0 9 3.17V3c0-1.6569 1.3431-3 3-3s3 1.3431 3 3v.086c.001.259.1558.4928.4038.5991.243.1073.527.0558.709-.1222l.0597-.0596a3 3 0 0 1 4.2442-.0008 3 3 0 0 1 .0004 4.2446l-.0522.0522a.65.65 0 0 0-.13.717 1 1 0 0 1 .0639.1989zM20.91 13H21c.5523 0 1-.4477 1-1s-.4477-1-1-1h-.174a2.65 2.65 0 0 1-2.4251-1.606 1 1 0 0 1-.0724-.2642c-.3313-.945-.1015-2.0052.6144-2.737l.0604-.0603a1 1 0 0 0-.0008-1.4158 1 1 0 0 0-1.4154.0004l-.0678.0678c-.7745.7575-1.932.9674-2.9132.5342C13.6353 5.1031 13.0042 4.1502 13 3.09V3c0-.5523-.4477-1-1-1s-1 .4477-1 1v.174a2.65 2.65 0 0 1-1.606 2.425 1 1 0 0 1-.2642.0724c-.945.3313-2.0052.1015-2.737-.6144l-.0603-.0604a1 1 0 0 0-1.4158.0008 1 1 0 0 0 .0004 1.4154l.0678.0678c.7575.7745.9674 1.932.5536 2.8645-.3756 1.0212-1.3373 1.709-2.4485 1.7348H3c-.5523 0-1 .4477-1 1s.4477 1 1 1h.174c1.0562.0042 2.009.6353 2.4209 1.5962.4374.9911.2275 2.1486-.5378 2.931l-.0604.0603a1 1 0 0 0 .0008 1.4158 1 1 0 0 0 1.4154-.0004l.0678-.0678c.7745-.7575 1.932-.9674 2.8645-.5536 1.0212.3756 1.709 1.3373 1.7348 2.4485V21c0 .5523.4477 1 1 1s1-.4477 1-1v-.174c.0042-1.0562.6353-2.009 1.5962-2.4209.9911-.4374 2.1486-.2275 2.931.5378l.0603.0604a1 1 0 0 0 1.4158-.0008 1 1 0 0 0-.0004-1.4154l-.0678-.0678a2.65 2.65 0 0 1-.5321-2.9182c.4172-.968 1.3686-1.5969 2.427-1.6011z"/></svg>
